X: 10062
T: Dick Tobin's
R: polka
M: 2/4
K: Aminor
|:EA AB|Bc BA|dB GB|AG ED|
EA AB|Bc BA|dB GB|1 AE FD:|2 AB ^cd||
|:e>^f ed|^cA AB/^c/|df dc|B/A/G B/c/d|
e>^f ed|^cd e^f|ge dB|1 AB ^cd:|2 AE FD||

